X:685
T:Mary Morison
B:Songs of Scotland Without Words
Z:Nigel Gatherer
M:4/4
L:1/8
K:G
GA | B3 c BAGF  | E3  F G2 A2 | B3  c d2 cB | e3 A A2
GA | B3 c BAGF  | E3  F G2 A2 | B2 g2 f3  g | e3 B B2 ||
B2 | e3 f g2 d2 | Bc d2 G2 B2 | A3  B c2 d2 | e3 A A2
dc | B3 c BAGF  | E3  F G2 A2 | B2 g2 f3  g | e3 B B2 ||
<end>
<start>
